X: 417
T: Bir Tek
C: Ali Ulvi Baradan
O: Turkey
F: http://compmusic.upf.edu/node/140
N: buselik--sarki--senginsemai--bir_tek--ali_ulvi_baradan
N: makam= buselik
N: form= sarki
N: usul= senginsemai = 6/4
M: 6/4
L: 1/16
K: C    
Q: 1/4=60
%%MIDI tuningsystem comma53
c4 B4 A4 ^GABG A8  | c2cd e3d c3B c2d2 e8  | \
w:   |   | 
(3e2f2g2 a4 g2fe e4 e3/2f/ed edcd  | 
w:   | 
e8 e3/2f/gf edcB A8  | c4 B4 A4 ^GABG A8  | \
w:   |   | 
c2cd e3d c3B c2d2 e8  | 
w:   | 
(3e2f2g2 a4 g2fe e4 e3/2f/ed edcd  | \
w:   | 
e8 e3/2f/gf edcd e8  | 
w:   | 
e3f g4 f2g2 a2b2 a2g2 f2e2  | e4 e2d2 d2ed cBcd e8  | 
w:   |   | 
B2c6 B4 A4 ^G2A2 BcBA  | A4 A2e2 e3/2f/gf edcd e8  | 
w:   |   | 
e3f g4 f2g2 a2b2 a2g2 f2e2  | e4 e2d2 d2ed cBcd e8  | 
w:   |   | 
B2c6 B4 A4 ^G2A2 BcBA  | A8 e3^f g_7/8agf g8  | \
w:   |   | 
e4 ^f4 g4 g_7/8agf g8  | 
w:   | 
g2_a4_1/4ba g3^f g2fe e8  | e2f6 e4 ^d4 e2f4(3gfe  | \
w:   |   | 
e8 e3^f g_agf g8  | 
w:   | 
c4 B4 A4 ^GABG A8  | c2cd e3d c3B c2d2 e8  | \
w:   |   | 
(3e2f2g2 a4 g2fe e4 e3/2f/ed edcd  | 
w:   | 
e8 e3/2f/gf edcd e8  | e3f g4 f2g2 a2b2 a2g2 f2e2  | 
w:   |   | 
e4 e2d2 d2ed cBcd e8  | B2c6 B4 A4 ^G2A2 BcBA  | 
w:   |   | 
A4 A2e2 e3/2f/gf edcd e8  | A8 e3^f g_7/8agf g8  | \
w:   |   | 
e4 ^f4 g4 g_7/8agf g8  | 
w:   | 
g2_a4_1/4ba g3^f g2fe e8  | e2f6 e4 ^d4 e2f4(3gfe  | \
w:   |   | 
e8 e3^f g_agf g8  | 
w:   | 
e8 e3/2f/ed edcd e8  | e3^f g4 f2g2 a2b2 a2g2 =f2e2  | 
w:   |   | 
e4 e2d2 d2ed cBcd e8  | B2c6 B4 A4 ^G2A2 BcBA  | 
w:   |   | 
A4 A2e2 efgf edcd e8  | e3^f g4 f2g2 a2b2 a2g2 =f2e2  | 
w:   |   | 
e4 e2d2 d2ed cBcd e8  | B2c6 B4 A4 ^G2A2 BcBA  | 
w:   |   | 
A4 A2e2 c3B cBA^G A4 z4  | ABcd e4 c3B A2e2 c2A2 c2cd  | 
w:   |   | 
e3d c3B c2d2 e3d cde2 (3e2^f2g2  | \
w:   | 
a4 g2fe edcB A8 (3B2c2d2  | 
w:   | 
e4 c3B cBA^G A8 ABcd  | e4 c3B A2e2 c2A2 c2cd e3d  | 
w:   |   | 
c3B c2d2 e3d cde2 (3e2^f2g2 a4  | \
w:   | 
g2fe edcB A8 (3B2c2d2 e4  | 
w:   | 
c3B cBA^G A8 |
w:   | 


